X:1
T:Pitcairn (Cairns), 88.86
T:Pitcairn (Cairns), 88.86
T:Thomas Cairns, before 1920
T:Public Domain Courtesy of the Cyber Hymnal™
C:Thomas Cairns, before 1920
Z:Public Domain
Z:Courtesy of the Cyber Hymnal™
%%score ( 1 2 ) ( 3 4 )
L:1/8
Q:1/4=120
M:3/2
K:D
V:1 treble 
V:2 treble 
V:3 bass 
V:4 bass 
V:1
 [DF]3 [DF] | [DF]6 [DF]2 [EG]3 [EG] | [EG]2 [DF]6 [FA]3 [FA] | [EA]6 [CA]2 [EB]3 [E^G] | %4
 [EB]2 [EA]6 A3 A | [Fd]6 [Fd]2 [Gd]3 [Ad] | [Ac]2 [GB]6 [FA]3 [GB] | (A6 E2) [GA]3 [GB] | [FA]8 |] %9
V:2
 x4 | x12 | x12 | x12 | x8 A3 A | x12 | x12 | E8 x4 | x8 |] %9
V:3
 [D,A,]3 [D,A,] | [D,A,]6 [D,A,]2 [C,A,]3 [C,A,] | [D,A,]2 [D,A,]6 [D,D]3 [D,D] | %3
 [E,C]6 [E,A,]2 [E,^G,]3 [E,B,] | [A,,D]2 [A,,C]6 A,3 A, | [D,A,]6 [D,A,]2 [D,A,]3 [F,D] | %6
 [G,D]2 [G,D]6 [A,D]3 [A,D] | [A,C]8 [A,,C]3 [A,,C] | [D,D]8 |] %9
V:4
 x4 | x12 | x12 | x12 | x8 A,3 A, | x12 | x12 | x12 | x8 |] %9

